X:274
T:
R:polska
N:Mycket gammal;
S:uppt. efter »Florsen» i Burs.
O:Gotland, Burs
M:3/4
L:1/16
K:Dm
D2FA A2d2 d4|f2ed e2c2 c4|c^cde fgag fed^c|d^cdf edc=B AGFE|
D2FA A2d2 d4|f2ed e2c2 c4|c2de fgag f2ed|fed^c ^c3d d4::
f3a fcfa bagf|e3g eceg agfe|d3f dAde f2ed|^cde^c LA4- AGFE|
D2FA A2d2 Ld4|f2ed e2c2 Lc4|c^cde fgag f2ed|fed^c ^c3d d4:|

